X:1
T:Title
%%score { 1 | ( 2 3 ) }
L:1/8
M:4/4
K:Ab
V:1 treble nm="Grand Piano"
V:2 bass 
V:3 bass 
V:1
 z4 z2 z[Q:1/4=92] [CE] | [CA]2 [EG][DF] [CE]2 [CA][DB] | [Ec]2 [DB][CA] c2 BB | %3
 d2 cB [Ec]2 [EB][EA] | [EG]B[B,FA][A,=DF] [G,E]3 [G,_DE] | [CA]2 [EG][DF] [CE]2 [CA][DB] | %6
 [Ec]2 [Fd][Ec] c2 BB | cedc .[FB]2 [A,DF][DFB] |[M:7/8] [CEA]2 [B,DG]2 [A,CA]3 |[M:1/8] c | %10
[M:4/4] c2 cc [=Ec]2 [EG][EG] | [GB]2 [FA][=EG] A2 FF | c2 cc [Fd]2 Bd | c2 BA B3 E | %14
 [CA]2 [EG].[F,DF] [A,CE]2 [A,EA]B | ce[Fd][FB] A2 GE | FG[EA]B ce[Ee][Fd] | %17
[M:7/8] [Ec]2 [DEB]>[DEB] [CEA]3 |] %18
V:2
 z4 z2 z [A,,A,] | [A,,E,]2 [A,,E,][A,,A,] [A,,A,]2 [A,,A,][A,,A,] | %2
 [A,,A,]2 [A,,A,][A,,A,] [E,A,E]2 [E,G,E][E,G,E] | [E,B,E]2 [E,A,E][E,G,E] [A,,A,]2 [B,,G,][C,A,] | %4
 z GB,,B,, E,3 E, | [A,,A,]2 [A,,A,][A,,A,] [A,,A,]2 [A,,A,][A,,A,] | %6
 [A,,A,]2 [A,,A,][A,,A,] [E,A,E]2 [E,G,E][E,G,E] | z C[G,B,E][A,E] z AD,D, |[M:7/8] E,2 E,2 A,,3 | %9
[M:1/8] [A,E] |[M:4/4] [A,E]2 [G,B,=E][F,A,F] [C,G,]2 [C,C][C,C] | %11
 [C,C]2 [C,C][C,C] [F,CF]2 [F,A,C][F,A,] | [F,A,F]2 [F,A,F][F,A,F] [B,,B,]2 [E,G,E][E,B,E] | %13
 [A,E]2 [G,B,E][F,B,=D] [E,G,E]3 [E,_D] | [A,,E,]2 .[A,,E,]>G, A,,2 C,[E,G,E] | %15
 E_G[K:bass][D,A,][D,D] [E,CE]2 [E,B,E][C,A,] | .[A,D]2 z2 [A,E]2 z2 |[M:7/8] [E,A,]2 E,>E, A,,3 |] %18
V:3
 x8 | x8 | x8 | x8 | [B,,B,]2 z2 z4 | x8 | x8 | [A,E]2 z2 [D,A,]2 z2 |[M:7/8] x7 |[M:1/8] x | %10
[M:4/4] x8 | x8 | x8 | x8 | z2 z A,, z4 | A,2[K:bass] z2 z4 | %16
 D,-[D,B,E][C,A,][E,G,E] z C[C,A,][D,A,] |[M:7/8] x7 |] %18

